(.../EAGLE/ulps/pcb-gcode/pcb-gcode.ulp)
(Copyright 2005 - 2012 by John Johnson)
(See readme.txt for licensing terms.)
(This file generated from the board:)
(.../EAGLE/projects/temp/fadhli.brd)
(Current profile is .../pcb-gcode-3.6.2.4/profiles/grbl-NuggetMill.pp  )
(This file generated 19/11/20 2:48 PM)
(Settings from pcb-machine.h)
(spindle on time = 0.0000)
(spindle speed = 12000.0000)
(milling depth = -1.6600)
(tool change at 0.000000 0.000000 12.700000 )
(feed rate xy = F60    )
(feed rate z  = F50    )
(Z Axis Settings)
(  High     Up        Down     Drill)
(12.700000 	2.000000 	-0.050000 	-1.660000 )
(Settings from pcb-defaults.h)
(isolate min = 0.0000)
(isolate max = 0.2000)
(isolate step = 0.2000)
(Generated top outlines, )
(Unit of measure: mm)
(Metric Mode)
G21
(Absolute Coordinates)
G90
G0 Z12.700000 
G0 X0.000000 Y0.000000 
M3
G4 P0
G0 Z2.000000 
G1 Z-0.415000 F50    
G1 X0.000000 Y33.324000 F60    
G1 X42.202000 Y33.324000 
G1 X42.202000 Y0.000000 
G1 X0.000000 Y0.000000 
G0 Z2.000000 
G1 Z-0.830000 F50    
G1 X0.000000 Y33.324000 F60    
G1 X42.202000 Y33.324000 
G1 X42.202000 Y0.000000 
G1 X0.000000 Y0.000000 
G0 Z2.000000 
G1 Z-1.245000 F50    
G1 X0.000000 Y33.324000 F60    
G1 X42.202000 Y33.324000 
G1 X42.202000 Y0.000000 
G1 X0.000000 Y0.000000 
G0 Z2.000000 
G1 Z-1.660000 F50    
G1 X0.000000 Y33.324000 F60    
G1 X42.202000 Y33.324000 
G1 X42.202000 Y0.000000 
G1 X0.000000 Y0.000000 
G0 Z12.700000 
M4
G0 X0 Y0
